packages/astro-components-stencil/src/icons/live-tv.svg

<svg width="24" height="24" viewBox="0 0 24 24" fill="none" xmlns="http://www.w3.org/2000/svg">
<path fill-rule="evenodd" clip-rule="evenodd" d="M21 6.0002H13.41L16.35 3.0602C16.55 2.8602 16.55 2.5502 16.35 2.3502C16.15 2.1502 15.84 2.1502 15.64 2.3502L12 5.9902L8.36 2.3502C8.16 2.1502 7.85 2.1502 7.65 2.3502C7.45 2.5502 7.45 2.8602 7.65 3.0602L10.59 6.0002H3C1.9 6.0002 1 6.8902 1 8.0002V20.0002C1 21.1002 1.9 22.0002 3 22.0002H21C22.1 22.0002 23 21.1002 23 20.0002V8.0002C23 6.8902 22.1 6.0002 21 6.0002ZM10.5 17.1502L14.48 14.8702C15.15 14.4902 15.15 13.5202 14.48 13.1302L10.5 10.8502C9.83 10.4702 9 10.9602 9 11.7202V16.2702C9 17.0402 9.83 17.5302 10.5 17.1502ZM4 20.0002H20C20.55 20.0002 21 19.5502 21 19.0002V9.0002C21 8.4502 20.55 8.0002 20 8.0002H4C3.45 8.0002 3 8.4502 3 9.0002V19.0002C3 19.5502 3.45 20.0002 4 20.0002Z" fill="black"/>
</svg>

<svg xmlns="http://www.w3.org/2000/svg" viewBox="0 0 24 24"><g xmlns="http://www.w3.org/2000/svg" id="live-tv" fill-rule="nonzero">
            <path d="M10.5 17.15l3.98-2.28c.67-.38.67-1.35 0-1.74l-3.98-2.28c-.67-.38-1.5.11-1.5.87v4.55c0 .77.83 1.26 1.5.88zM21 6h-7.59l2.94-2.94c.2-.2.2-.51 0-.71-.2-.2-.51-.2-.71 0L12 5.99 8.36 2.35c-.2-.2-.51-.2-.71 0-.2.2-.2.51 0 .71L10.59 6H3a2 2 0 00-2 2v12c0 1.1.9 2 2 2h18c1.1 0 2-.9 2-2V8a2 2 0 00-2-2zm-1 14H4c-.55 0-1-.45-1-1V9c0-.55.45-1 1-1h16c.55 0 1 .45 1 1v10c0 .55-.45 1-1 1z"/>
        </g></svg>
